X:7885
T:Jenny Dang The Weaver
M:C|
L:1/8
A:Scotland
C:Trad.
K:D
f/2e/2|:"D"{c}dA A/2A/2A AFAB|dA A/2A/2A f2ef|
"Bm"dB B/2B/2B BABd|"G"ABde faef:|
"D"{c}d2 fd "Em"efge|"D"d2 fd "A7"e2dB|
"D"de fd "Em"efge|"A7"aA A/2A/2A f2 ef|
"D"de fd "Em"efge|"D"defd "A7"e2dB|
"D"defd "Em"efge|"A7"f/2g/2a Aa fgef||
